exports/peaking-farmland-global-arable-and-permanent-crop-area-and-ausubel-2013-projections-of-peak-farmland_v1_850x600.svg

<svg xmlns="http://www.w3.org/2000/svg" version="1.1" style="background-color:#fff;-webkit-font-smoothing:antialiased" width="850" height="600" font-family="'Helvetica Neue',Helvetica,Arial,sans-serif" font-size="18" text-rendering="optimizeLegibility"><g class="ChartTab"><g class="HeaderView"><g opacity=".8" transform="matrix(.31 0 0 .31 770 15)"><a xmlns:xlink="http://www.w3.org/1999/xlink" xlink:href="https://ourworldindata.org" target="_blank"><g><path fill="#1B2543" d="M0 0h211.2v130.1H0z"/><path fill="#E63912" d="M0 112.2h211.2v17.9H0z"/><g><path fill="none" d="M1.2 12.3h210.2v99.2H1.2z"/><path fill="#FFF" d="M37.8 32.2c0 12.7-7.7 19.4-17.1 19.4-9.7 0-16.6-7.5-16.6-18.7 0-11.7 7.3-19.3 17.1-19.3 10.1.1 16.6 7.7 16.6 18.6zm-28.6.6c0 7.9 4.3 14.9 11.8 14.9 7.5 0 11.8-6.9 11.8-15.3 0-7.3-3.8-14.9-11.8-14.9-7.9 0-11.8 7.3-11.8 15.3zM62.7 43.8c0 2.7.1 5.1.2 7.2h-4.3l-.3-4.3h-.1c-1.3 2.1-4 4.9-8.8 4.9-4.2 0-9.1-2.3-9.1-11.6V24.6h4.8v14.6c0 5 1.5 8.4 5.9 8.4 3.2 0 5.5-2.2 6.3-4.4.3-.7.4-1.6.4-2.5V24.6h4.8v19.2zM67.3 32.8c0-3.1-.1-5.8-.2-8.2h4.2l.2 5.2h.2c1.2-3.5 4.1-5.8 7.3-5.8.5 0 .9.1 1.4.2v4.5c-.5-.1-1-.2-1.6-.2-3.4 0-5.8 2.6-6.5 6.2-.1.7-.2 1.4-.2 2.2V51h-4.8V32.8zM95.4 51L86 14.2h5l4.4 18.6c1.1 4.6 2.1 9.2 2.7 12.7h.1c.6-3.7 1.8-8 3-12.8l4.9-18.5h5l4.5 18.7c1 4.4 2 8.7 2.6 12.6h.1c.8-4 1.8-8.1 3-12.7l4.9-18.5h4.9L120.6 51h-5L111 31.9c-1.1-4.7-1.9-8.3-2.4-12h-.1c-.7 3.7-1.5 7.3-2.8 12L100.4 51h-5zM154.9 37.6c0 9.8-6.8 14-13.2 14-7.2 0-12.7-5.2-12.7-13.6 0-8.8 5.8-14 13.1-14 7.7 0 12.8 5.5 12.8 13.6zm-21 .3c0 5.8 3.3 10.1 8 10.1 4.6 0 8-4.3 8-10.3 0-4.5-2.2-10.1-7.9-10.1s-8.1 5.2-8.1 10.3zM158.2 32.8c0-3.1-.1-5.8-.2-8.2h4.2l.2 5.2h.2c1.2-3.5 4.1-5.8 7.3-5.8.5 0 .9.1 1.4.2v4.5c-.5-.1-1-.2-1.6-.2-3.4 0-5.8 2.6-6.5 6.2-.1.7-.2 1.4-.2 2.2V51h-4.8V32.8zM173.5 12.3h4.8V51h-4.8V12.3zM206.5 12.3v31.9c0 2.3.1 5 .2 6.8h-4.3l-.2-4.6h-.2c-1.5 2.9-4.7 5.2-9 5.2-6.4 0-11.3-5.4-11.3-13.4-.1-8.8 5.4-14.2 11.9-14.2 4 0 6.8 1.9 8 4h.1V12.3h4.8zm-4.8 23.1c0-.6-.1-1.4-.2-2a7 7 0 00-6.9-5.6c-5 0-7.9 4.4-7.9 10.2 0 5.3 2.6 9.8 7.8 9.8 3.2 0 6.2-2.1 7.1-5.7.2-.7.2-1.3.2-2.1v-4.6zM42.8 64c.1 1.6-1.1 2.9-3.1 2.9-1.7 0-2.9-1.3-2.9-2.9 0-1.7 1.3-3 3-3 1.9 0 3 1.3 3 3zm-5.4 33.8V71.4h4.8v26.4h-4.8zM47.5 78.6c0-2.7-.1-5-.2-7.1h4.3l.3 4.4h.1c1.3-2.5 4.4-5 8.8-5 3.7 0 9.4 2.2 9.4 11.2v15.8h-4.8V82.6c0-4.3-1.6-7.8-6.1-7.8-3.2 0-5.6 2.2-6.5 4.9-.2.6-.3 1.4-.3 2.2v15.9h-4.8V78.6zM84 61.6c2.9-.4 6.3-.8 10.1-.8 6.8 0 11.7 1.6 14.9 4.6 3.3 3 5.2 7.3 5.2 13.2 0 6-1.9 10.9-5.3 14.3-3.4 3.4-9.1 5.3-16.3 5.3-3.4 0-6.2-.2-8.6-.4V61.6zm4.8 32.5c1.2.2 3 .3 4.8.3 10.2 0 15.7-5.7 15.7-15.6.1-8.7-4.9-14.2-14.9-14.2-2.5 0-4.3.2-5.6.5v29zM132.1 97.8l-.4-3.3h-.2a9.79 9.79 0 01-8.1 3.9c-5.4 0-8.1-3.8-8.1-7.6 0-6.4 5.7-9.9 15.9-9.8v-.5c0-2.2-.6-6.1-6-6.1-2.5 0-5 .8-6.9 2l-1.1-3.2c2.2-1.4 5.4-2.3 8.7-2.3 8.1 0 10.1 5.5 10.1 10.8v9.9c0 2.3.1 4.5.4 6.3h-4.3zm-.7-13.4c-5.3-.1-11.2.8-11.2 5.9 0 3.1 2.1 4.6 4.5 4.6 3.4 0 5.6-2.2 6.4-4.4.2-.5.3-1 .3-1.5v-4.6zM146.6 63.9v7.6h6.9v3.7h-6.9v14.2c0 3.3.9 5.1 3.6 5.1 1.3 0 2.2-.2 2.8-.3l.2 3.6c-.9.4-2.4.7-4.3.7-2.2 0-4-.7-5.2-2-1.4-1.4-1.9-3.8-1.9-6.9V75.1h-4.1v-3.7h4.1v-6.3l4.8-1.2zM171.4 97.8l-.4-3.3h-.2a9.79 9.79 0 01-8.1 3.9c-5.4 0-8.1-3.8-8.1-7.6 0-6.4 5.7-9.9 15.9-9.8v-.5c0-2.2-.6-6.1-6-6.1-2.5 0-5 .8-6.9 2l-1.1-3.2c2.2-1.4 5.4-2.3 8.7-2.3 8.1 0 10.1 5.5 10.1 10.8v9.9c0 2.3.1 4.5.4 6.3h-4.3zm-.7-13.4c-5.3-.1-11.2.8-11.2 5.9 0 3.1 2.1 4.6 4.5 4.6 3.4 0 5.6-2.2 6.4-4.4.2-.5.3-1 .3-1.5v-4.6z"/></g></g></a></g><a href="https://ourworldindata.org/grapher/peaking-farmland-global-arable-and-permanent-crop-area-and-ausubel-2013-projections-of-peak-farmland" target="_blank"><text font-size="21.6" x="15" y="32.3" fill="#555"><tspan x="15" y="32.28">Peaking farmland: global arable and permanent crop area and Ausubel</tspan><tspan x="15" y="53.88">(2013) projections of peak farmland</tspan></text></a><text font-size="14.4" x="15" y="72.7" fill="#666"><tspan x="15" y="72.72">Global area used for arable and permanent crops from 1961-2014 based on UN Food and Agricultural Organization (FAO) data,</tspan><tspan x="15" y="88.56">measured in hectares. Ausubel et al. (2013) projected peak farmland in 2009, with a 0.2 percent reduction in farmland area per</tspan><tspan x="15" y="104.4">year to 2060; this projection is also shown.</tspan></text></g><g class="LineChart"><defs><clipPath id="a"><path d="M110.28 0h830v830.6h-830z"/></clipPath></defs><g class="AxisBoxView"><g class="HorizontalAxis" fill="#666" text-anchor="middle" font-size="16.2"><text x="120.3" y="541.9">1961</text><text x="213.9" y="541.9">1980</text><text x="312.5" y="541.9">2000</text><text x="411.1" y="541.9">2020</text><text x="509.7" y="541.9">2040</text><text x="608.3" y="541.9">2060</text></g><g class="VerticalAxis" fill="#666" dominant-baseline="middle" text-anchor="end" font-size="16.2"><text x="115.28" y="520.7">0 ha</text><text x="115.28" y="471">200 million ha</text><text x="115.28" y="421.2">400 million ha</text><text x="115.28" y="371.5">600 million ha</text><text x="115.28" y="321.7">800 million ha</text><text x="115.28" y="272">1 billion ha</text><text x="115.28" y="222.2">1.2 billion ha</text><text x="115.28" y="172.5">1.4 billion ha</text></g><g class="AxisGridLines"><path stroke="#ccc" d="M120.28 520.7h487.98"/><path stroke="#ddd" stroke-dasharray="3,2" d="M120.28 471h487.98M120.28 421.2h487.98M120.28 371.5h487.98M120.28 321.7h487.98M120.28 272h487.98M120.28 222.2h487.98M120.28 172.5h487.98"/></g><g class="AxisGridLines" stroke="#ddd" stroke-dasharray="3,2"><path d="M213.9 520.7V126.6M312.5 520.7V126.6M411.1 520.7V126.6M509.7 520.7V126.6M608.3 520.7V126.6"/></g></g><g clip-path="url(#a)"><g class="HeightedLegend clickable"><g class="legendMark"><path fill="#818282" d="M618.26 171.55h10v2.5h-10z"/><text font-size="14.4" x="633.3" y="177.1" fill="#333"><tspan x="633.26" y="177.12">Ausubel et al. (2013) Projection</tspan></text></g></g><g class="Lines"><g class="key-World_0"><path stroke="#e6332e" stroke-linecap="round" d="M120 178l5-2 5-2 5-1 5-1h5l5-1 5-3 5-5h5l5 1h5l4-2h20l5-1 5-1h10l5-3 5-1 5-5 5-4 5-2 4-2h5l5-1 5-1 5-1h5l5-1h10l5 2 5-2 5-1h10l4 1h5l5-1 5-2 5-2 5 3 5-1 5-1h5l5 1 5-3 5-4h5l5-2" fill="none" stroke-width="1.5"/><g fill="#e6332e"><circle cx="120" cy="178" r="2"/><circle cx="125" cy="176" r="2"/><circle cx="130" cy="174" r="2"/><circle cx="135" cy="173" r="2"/><circle cx="140" cy="172" r="2"/><circle cx="145" cy="172" r="2"/><circle cx="150" cy="171" r="2"/><circle cx="155" cy="168" r="2"/><circle cx="160" cy="163" r="2"/><circle cx="165" cy="163" r="2"/><circle cx="170" cy="164" r="2"/><circle cx="175" cy="164" r="2"/><circle cx="179" cy="162" r="2"/><circle cx="184" cy="162" r="2"/><circle cx="189" cy="162" r="2"/><circle cx="194" cy="162" r="2"/><circle cx="199" cy="162" r="2"/><circle cx="204" cy="161" r="2"/><circle cx="209" cy="160" r="2"/><circle cx="214" cy="160" r="2"/><circle cx="219" cy="160" r="2"/><circle cx="224" cy="157" r="2"/><circle cx="229" cy="156" r="2"/><circle cx="234" cy="151" r="2"/><circle cx="239" cy="147" r="2"/><circle cx="244" cy="145" r="2"/><circle cx="248" cy="143" r="2"/><circle cx="253" cy="143" r="2"/><circle cx="258" cy="142" r="2"/><circle cx="263" cy="141" r="2"/><circle cx="268" cy="140" r="2"/><circle cx="273" cy="140" r="2"/><circle cx="278" cy="139" r="2"/><circle cx="283" cy="139" r="2"/><circle cx="288" cy="139" r="2"/><circle cx="293" cy="141" r="2"/><circle cx="298" cy="139" r="2"/><circle cx="303" cy="138" r="2"/><circle cx="308" cy="138" r="2"/><circle cx="313" cy="138" r="2"/><circle cx="317" cy="139" r="2"/><circle cx="322" cy="139" r="2"/><circle cx="327" cy="138" r="2"/><circle cx="332" cy="136" r="2"/><circle cx="337" cy="134" r="2"/><circle cx="342" cy="137" r="2"/><circle cx="347" cy="136" r="2"/><circle cx="352" cy="135" r="2"/><circle cx="357" cy="135" r="2"/><circle cx="362" cy="136" r="2"/><circle cx="367" cy="133" r="2"/><circle cx="372" cy="129" r="2"/><circle cx="377" cy="129" r="2"/><circle cx="382" cy="127" r="2"/></g></g><g class="key-World_1"><path stroke="#818282" stroke-linecap="round" d="M362 136l5 1 5 1 5 1h5l4 1 5 1 5 1h5l5 1 5 1 5 1h5l5 1 5 1 5 1h5l5 1 5 1 5 1h4l5 1 5 1 5 1h5l5 1 5 1h5l5 1 5 1 5 1h5l5 1 5 1 4 1h5l5 1 5 1h5l5 1 5 1 5 1h5l5 1 5 1h5l5 1 5 1h4l5 1 5 1" fill="none" stroke-width="1.5" stroke-dasharray="1,4"/></g></g></g></g><g class="SourcesFooter" fill="#777"><g class="clickable" fill="#777"><text font-size="12.6" x="15" y="567"><tspan x="15" y="566.98">Source: FAOstats (1961-2014); and Ausubel et al. (2013) projections (2010-2060)</tspan></text></g><text font-size="12.6" x="15" y="582.5"><tspan x="15" y="582.48"><a target="_blank" href="https://ourworldindata.org/yields-and-land-use-in-agriculture/" fill="#777">OurWorldInData.org/yields-and-land-use-in-agriculture/</a> • <a href="http://creativecommons.org/licenses/by-sa/4.0/deed.en_US" target="_blank" fill="#777">CC BY-SA</a></tspan></text></g></g></svg>

<svg xmlns="http://www.w3.org/2000/svg" version="1.1" style="font-family: 'Helvetica Neue', Helvetica, Arial, sans-serif; font-size: 18px; background-color: white; text-rendering: optimizeLegibility; -webkit-font-smoothing: antialiased;" width="850" height="600"><g class="ChartTab"><g class="HeaderView"><g opacity="0.8" transform="translate(770, 15) scale(0.31)"><a xmlns:xlink="http://www.w3.org/1999/xlink" xlink:href="https://ourworldindata.org" target="_blank"><g><rect x="0" y="0" fill="#1B2543" width="211.2" height="130.1"/><rect x="0" y="112.2" fill="#E63912" width="211.2" height="17.9"/><g><rect x="1.2" y="12.3" fill="none" width="210.2" height="99.2"/><path fill="#FFFFFF" d="M37.8,32.2c0,12.7-7.7,19.4-17.1,19.4c-9.7,0-16.6-7.5-16.6-18.7c0-11.7,7.3-19.3,17.1-19.3 C31.3,13.7,37.8,21.3,37.8,32.2z M9.2,32.8c0,7.9,4.3,14.9,11.8,14.9c7.5,0,11.8-6.9,11.8-15.3c0-7.3-3.8-14.9-11.8-14.9 C13.1,17.5,9.2,24.8,9.2,32.8z"/><path fill="#FFFFFF" d="M62.7,43.8c0,2.7,0.1,5.1,0.2,7.2h-4.3l-0.3-4.3h-0.1c-1.3,2.1-4,4.9-8.8,4.9c-4.2,0-9.1-2.3-9.1-11.6 V24.6h4.8v14.6c0,5,1.5,8.4,5.9,8.4c3.2,0,5.5-2.2,6.3-4.4c0.3-0.7,0.4-1.6,0.4-2.5V24.6h4.8V43.8z"/><path fill="#FFFFFF" d="M67.3,32.8c0-3.1-0.1-5.8-0.2-8.2h4.2l0.2,5.2h0.2c1.2-3.5,4.1-5.8,7.3-5.8c0.5,0,0.9,0.1,1.4,0.2v4.5 c-0.5-0.1-1-0.2-1.6-0.2c-3.4,0-5.8,2.6-6.5,6.2c-0.1,0.7-0.2,1.4-0.2,2.2V51h-4.8V32.8z"/><path fill="#FFFFFF" d="M95.4,51l-9.4-36.8h5l4.4,18.6c1.1,4.6,2.1,9.2,2.7,12.7h0.1c0.6-3.7,1.8-8,3-12.8l4.9-18.5h5l4.5,18.7 c1,4.4,2,8.7,2.6,12.6h0.1c0.8-4,1.8-8.1,3-12.7l4.9-18.5h4.9L120.6,51h-5L111,31.9c-1.1-4.7-1.9-8.3-2.4-12h-0.1 c-0.7,3.7-1.5,7.3-2.8,12L100.4,51H95.4z"/><path fill="#FFFFFF" d="M154.9,37.6c0,9.8-6.8,14-13.2,14c-7.2,0-12.7-5.2-12.7-13.6c0-8.8,5.8-14,13.1-14 C149.8,24,154.9,29.5,154.9,37.6z M133.9,37.9c0,5.8,3.3,10.1,8,10.1c4.6,0,8-4.3,8-10.3c0-4.5-2.2-10.1-7.9-10.1 C136.3,27.6,133.9,32.8,133.9,37.9z"/><path fill="#FFFFFF" d="M158.2,32.8c0-3.1-0.1-5.8-0.2-8.2h4.2l0.2,5.2h0.2c1.2-3.5,4.1-5.8,7.3-5.8c0.5,0,0.9,0.1,1.4,0.2v4.5 c-0.5-0.1-1-0.2-1.6-0.2c-3.4,0-5.8,2.6-6.5,6.2c-0.1,0.7-0.2,1.4-0.2,2.2V51h-4.8V32.8z"/><path fill="#FFFFFF" d="M173.5,12.3h4.8V51h-4.8V12.3z"/><path fill="#FFFFFF" d="M206.5,12.3v31.9c0,2.3,0.1,5,0.2,6.8h-4.3l-0.2-4.6H202c-1.5,2.9-4.7,5.2-9,5.2 c-6.4,0-11.3-5.4-11.3-13.4c-0.1-8.8,5.4-14.2,11.9-14.2c4,0,6.8,1.9,8,4h0.1V12.3H206.5z M201.7,35.4c0-0.6-0.1-1.4-0.2-2 c-0.7-3.1-3.3-5.6-6.9-5.6c-5,0-7.9,4.4-7.9,10.2c0,5.3,2.6,9.8,7.8,9.8c3.2,0,6.2-2.1,7.1-5.7c0.2-0.7,0.2-1.3,0.2-2.1V35.4z"/><path fill="#FFFFFF" d="M42.8,64c0.1,1.6-1.1,2.9-3.1,2.9c-1.7,0-2.9-1.3-2.9-2.9c0-1.7,1.3-3,3-3C41.7,61,42.8,62.3,42.8,64z M37.4,97.8V71.4h4.8v26.4H37.4z"/><path fill="#FFFFFF" d="M47.5,78.6c0-2.7-0.1-5-0.2-7.1h4.3l0.3,4.4h0.1c1.3-2.5,4.4-5,8.8-5c3.7,0,9.4,2.2,9.4,11.2v15.8h-4.8 V82.6c0-4.3-1.6-7.8-6.1-7.8c-3.2,0-5.6,2.2-6.5,4.9c-0.2,0.6-0.3,1.4-0.3,2.2v15.9h-4.8V78.6z"/><path fill="#FFFFFF" d="M84,61.6c2.9-0.4,6.3-0.8,10.1-0.8c6.8,0,11.7,1.6,14.9,4.6c3.3,3,5.2,7.3,5.2,13.2c0,6-1.9,10.9-5.3,14.3 c-3.4,3.4-9.1,5.3-16.3,5.3c-3.4,0-6.2-0.2-8.6-0.4V61.6z M88.8,94.1c1.2,0.2,3,0.3,4.8,0.3c10.2,0,15.7-5.7,15.7-15.6 c0.1-8.7-4.9-14.2-14.9-14.2c-2.5,0-4.3,0.2-5.6,0.5V94.1z"/><path fill="#FFFFFF" d="M132.1,97.8l-0.4-3.3h-0.2c-1.5,2.1-4.3,3.9-8.1,3.9c-5.4,0-8.1-3.8-8.1-7.6c0-6.4,5.7-9.9,15.9-9.8v-0.5 c0-2.2-0.6-6.1-6-6.1c-2.5,0-5,0.8-6.9,2l-1.1-3.2c2.2-1.4,5.4-2.3,8.7-2.3c8.1,0,10.1,5.5,10.1,10.8v9.9c0,2.3,0.1,4.5,0.4,6.3 H132.1z M131.4,84.4c-5.3-0.1-11.2,0.8-11.2,5.9c0,3.1,2.1,4.6,4.5,4.6c3.4,0,5.6-2.2,6.4-4.4c0.2-0.5,0.3-1,0.3-1.5V84.4z"/><path fill="#FFFFFF" d="M146.6,63.9v7.6h6.9v3.7h-6.9v14.2c0,3.3,0.9,5.1,3.6,5.1c1.3,0,2.2-0.2,2.8-0.3l0.2,3.6 c-0.9,0.4-2.4,0.7-4.3,0.7c-2.2,0-4-0.7-5.2-2c-1.4-1.4-1.9-3.8-1.9-6.9V75.1h-4.1v-3.7h4.1v-6.3L146.6,63.9z"/><path fill="#FFFFFF" d="M171.4,97.8l-0.4-3.3h-0.2c-1.5,2.1-4.3,3.9-8.1,3.9c-5.4,0-8.1-3.8-8.1-7.6c0-6.4,5.7-9.9,15.9-9.8v-0.5 c0-2.2-0.6-6.1-6-6.1c-2.5,0-5,0.8-6.9,2l-1.1-3.2c2.2-1.4,5.4-2.3,8.7-2.3c8.1,0,10.1,5.5,10.1,10.8v9.9c0,2.3,0.1,4.5,0.4,6.3 H171.4z M170.7,84.4c-5.3-0.1-11.2,0.8-11.2,5.9c0,3.1,2.1,4.6,4.5,4.6c3.4,0,5.6-2.2,6.4-4.4c0.2-0.5,0.3-1,0.3-1.5V84.4z"/></g></g></a></g><a href="https://ourworldindata.org/grapher/peaking-farmland-global-arable-and-permanent-crop-area-and-ausubel-2013-projections-of-peak-farmland" target="_blank"><text font-size="21.60" x="15.0" y="32.3" fill="#555"><tspan x="15" y="32.279999999999994">Peaking farmland: global arable and permanent crop area and Ausubel</tspan><tspan x="15" y="53.87999999999999">(2013) projections of peak farmland</tspan></text></a><text font-size="14.40" x="15.0" y="72.7" fill="#666"><tspan x="15" y="72.72">Global area used for arable and permanent crops from 1961-2014 based on UN Food and Agricultural Organization (FAO) data,</tspan><tspan x="15" y="88.56">measured in hectares. Ausubel et al. (2013) projected peak farmland in 2009, with a 0.2 percent reduction in farmland area per</tspan><tspan x="15" y="104.4">year to 2060; this projection is also shown.</tspan></text></g><g class="LineChart"><defs><clipPath id="boundsClip-244"><rect x="110.278" y="0" width="830" height="830.5999999999999"></rect></clipPath></defs><g class="AxisBoxView"><g class="HorizontalAxis"><text x="120.3" y="541.9" fill="#666" text-anchor="middle" font-size="16.2">1961</text><text x="213.9" y="541.9" fill="#666" text-anchor="middle" font-size="16.2">1980</text><text x="312.5" y="541.9" fill="#666" text-anchor="middle" font-size="16.2">2000</text><text x="411.1" y="541.9" fill="#666" text-anchor="middle" font-size="16.2">2020</text><text x="509.7" y="541.9" fill="#666" text-anchor="middle" font-size="16.2">2040</text><text x="608.3" y="541.9" fill="#666" text-anchor="middle" font-size="16.2">2060</text></g><g class="VerticalAxis"><text x="115.28" y="520.7" fill="#666" dominant-baseline="middle" text-anchor="end" font-size="16.2">0 ha</text><text x="115.28" y="471" fill="#666" dominant-baseline="middle" text-anchor="end" font-size="16.2">200 million ha</text><text x="115.28" y="421.2" fill="#666" dominant-baseline="middle" text-anchor="end" font-size="16.2">400 million ha</text><text x="115.28" y="371.5" fill="#666" dominant-baseline="middle" text-anchor="end" font-size="16.2">600 million ha</text><text x="115.28" y="321.7" fill="#666" dominant-baseline="middle" text-anchor="end" font-size="16.2">800 million ha</text><text x="115.28" y="272" fill="#666" dominant-baseline="middle" text-anchor="end" font-size="16.2">1 billion ha</text><text x="115.28" y="222.2" fill="#666" dominant-baseline="middle" text-anchor="end" font-size="16.2">1.2 billion ha</text><text x="115.28" y="172.5" fill="#666" dominant-baseline="middle" text-anchor="end" font-size="16.2">1.4 billion ha</text></g><g class="AxisGridLines"><line x1="120.28" y1="520.7" x2="608.26" y2="520.7" stroke="#ccc"></line><line x1="120.28" y1="471" x2="608.26" y2="471" stroke="#ddd" stroke-dasharray="3,2"></line><line x1="120.28" y1="421.2" x2="608.26" y2="421.2" stroke="#ddd" stroke-dasharray="3,2"></line><line x1="120.28" y1="371.5" x2="608.26" y2="371.5" stroke="#ddd" stroke-dasharray="3,2"></line><line x1="120.28" y1="321.7" x2="608.26" y2="321.7" stroke="#ddd" stroke-dasharray="3,2"></line><line x1="120.28" y1="272" x2="608.26" y2="272" stroke="#ddd" stroke-dasharray="3,2"></line><line x1="120.28" y1="222.2" x2="608.26" y2="222.2" stroke="#ddd" stroke-dasharray="3,2"></line><line x1="120.28" y1="172.5" x2="608.26" y2="172.5" stroke="#ddd" stroke-dasharray="3,2"></line></g><g class="AxisGridLines"><line x1="213.9" y1="520.70" x2="213.9" y2="126.60" stroke="#ddd" stroke-dasharray="3,2"></line><line x1="312.5" y1="520.70" x2="312.5" y2="126.60" stroke="#ddd" stroke-dasharray="3,2"></line><line x1="411.1" y1="520.70" x2="411.1" y2="126.60" stroke="#ddd" stroke-dasharray="3,2"></line><line x1="509.7" y1="520.70" x2="509.7" y2="126.60" stroke="#ddd" stroke-dasharray="3,2"></line><line x1="608.3" y1="520.70" x2="608.3" y2="126.60" stroke="#ddd" stroke-dasharray="3,2"></line></g></g><g clip-path="url(#boundsClip-244)"><g class="HeightedLegend clickable"><g class="legendMark"><rect x="618.256" y="165.60000000000002" width="216.74400000000003" height="14.4" fill="#fff" opacity="0"></rect><rect x="618.256" y="171.55" width="10" height="2.5" fill="#818282"></rect><text font-size="14.40" x="633.3" y="177.1" fill="#333"><tspan x="633.256" y="177.12000000000003">Ausubel et al. (2013) Projection</tspan></text></g></g><g class="Lines"><rect x="120" y="127" width="488" height="394" fill="rgba(255,255,255,0)" opacity="0"></rect><g class="key-World_0"><path stroke="#e6332e" stroke-linecap="round" d="M120 178L125 176L130 174L135 173L140 172L145 172L150 171L155 168L160 163L165 163L170 164L175 164L179 162L184 162L189 162L194 162L199 162L204 161L209 160L214 160L219 160L224 157L229 156L234 151L239 147L244 145L248 143L253 143L258 142L263 141L268 140L273 140L278 139L283 139L288 139L293 141L298 139L303 138L308 138L313 138L317 139L322 139L327 138L332 136L337 134L342 137L347 136L352 135L357 135L362 136L367 133L372 129L377 129L382 127" fill="none" stroke-width="1.5"></path><g fill="#e6332e"><circle cx="120" cy="178" r="2"></circle><circle cx="125" cy="176" r="2"></circle><circle cx="130" cy="174" r="2"></circle><circle cx="135" cy="173" r="2"></circle><circle cx="140" cy="172" r="2"></circle><circle cx="145" cy="172" r="2"></circle><circle cx="150" cy="171" r="2"></circle><circle cx="155" cy="168" r="2"></circle><circle cx="160" cy="163" r="2"></circle><circle cx="165" cy="163" r="2"></circle><circle cx="170" cy="164" r="2"></circle><circle cx="175" cy="164" r="2"></circle><circle cx="179" cy="162" r="2"></circle><circle cx="184" cy="162" r="2"></circle><circle cx="189" cy="162" r="2"></circle><circle cx="194" cy="162" r="2"></circle><circle cx="199" cy="162" r="2"></circle><circle cx="204" cy="161" r="2"></circle><circle cx="209" cy="160" r="2"></circle><circle cx="214" cy="160" r="2"></circle><circle cx="219" cy="160" r="2"></circle><circle cx="224" cy="157" r="2"></circle><circle cx="229" cy="156" r="2"></circle><circle cx="234" cy="151" r="2"></circle><circle cx="239" cy="147" r="2"></circle><circle cx="244" cy="145" r="2"></circle><circle cx="248" cy="143" r="2"></circle><circle cx="253" cy="143" r="2"></circle><circle cx="258" cy="142" r="2"></circle><circle cx="263" cy="141" r="2"></circle><circle cx="268" cy="140" r="2"></circle><circle cx="273" cy="140" r="2"></circle><circle cx="278" cy="139" r="2"></circle><circle cx="283" cy="139" r="2"></circle><circle cx="288" cy="139" r="2"></circle><circle cx="293" cy="141" r="2"></circle><circle cx="298" cy="139" r="2"></circle><circle cx="303" cy="138" r="2"></circle><circle cx="308" cy="138" r="2"></circle><circle cx="313" cy="138" r="2"></circle><circle cx="317" cy="139" r="2"></circle><circle cx="322" cy="139" r="2"></circle><circle cx="327" cy="138" r="2"></circle><circle cx="332" cy="136" r="2"></circle><circle cx="337" cy="134" r="2"></circle><circle cx="342" cy="137" r="2"></circle><circle cx="347" cy="136" r="2"></circle><circle cx="352" cy="135" r="2"></circle><circle cx="357" cy="135" r="2"></circle><circle cx="362" cy="136" r="2"></circle><circle cx="367" cy="133" r="2"></circle><circle cx="372" cy="129" r="2"></circle><circle cx="377" cy="129" r="2"></circle><circle cx="382" cy="127" r="2"></circle></g></g><g class="key-World_1"><path stroke="#818282" stroke-linecap="round" d="M362 136L367 137L372 138L377 139L382 139L386 140L391 141L396 142L401 142L406 143L411 144L416 145L421 145L426 146L431 147L436 148L441 148L446 149L451 150L456 151L460 151L465 152L470 153L475 154L480 154L485 155L490 156L495 156L500 157L505 158L510 159L515 159L520 160L525 161L529 162L534 162L539 163L544 164L549 164L554 165L559 166L564 167L569 167L574 168L579 169L584 169L589 170L594 171L598 171L603 172L608 173" fill="none" stroke-width="1.5" stroke-dasharray="1,4"></path></g></g></g></g><g style="fill: #777;" class="SourcesFooter"><g style="fill: #777;" class="clickable"><text font-size="12.60" x="15.0" y="567.0"><tspan x="15" y="566.98">Source: FAOstats (1961-2014); and Ausubel et al. (2013) projections (2010-2060)</tspan></text></g><text font-size="12.60" x="15.0" y="582.5"><tspan x="15" y="582.48"><a target='_blank' style='fill: #777;' href='https://ourworldindata.org/yields-and-land-use-in-agriculture/'>OurWorldInData.org/yields-and-land-use-in-agriculture/</a> • <a style="fill: #777;" href="http://creativecommons.org/licenses/by-sa/4.0/deed.en_US" target="_blank">CC BY-SA</a></tspan></text></g></g></svg>
